_inc/systems/logos/mplayer.svg

<?xml version="1.0" encoding="utf-8"?>
<svg viewBox="0 0 200 40" xmlns="http://www.w3.org/2000/svg">
  <path d="M 12.67 29.375 L 6.73 29.375 L 11.11 10.625 L 18.55 10.625 L 19.09 20.165 L 19.3 20.165 L 23.2 10.625 L 30.64 10.625 L 28.42 29.375 L 22.45 29.375 L 23.71 20.285 L 23.5 20.285 L 19.75 29.375 L 15.4 29.375 L 14.77 20.285 L 14.62 20.285 Z M 44.225 22.295 L 38.525 22.295 L 38.135 24.575 L 45.125 24.575 L 44.285 29.375 L 31.595 29.375 L 34.895 10.625 L 47.435 10.625 L 45.875 15.425 L 39.725 15.425 L 39.305 17.945 L 45.005 17.945 Z M 47.499 29.375 L 50.799 10.625 L 58.779 10.625 C 61.359 10.625 63.194 11.08 64.284 11.99 C 65.374 12.9 65.919 14.375 65.919 16.415 C 65.919 17.455 65.799 18.655 65.559 20.015 C 64.959 23.375 63.934 25.775 62.484 27.215 C 61.034 28.655 58.699 29.375 55.479 29.375 Z M 57.999 15.425 L 55.629 15.425 L 54.039 24.575 L 56.409 24.575 C 57.189 24.575 57.769 24.48 58.149 24.29 C 58.529 24.1 58.779 23.665 58.899 22.985 L 59.949 17.015 C 59.969 16.895 59.979 16.735 59.979 16.535 C 59.979 16.075 59.819 15.775 59.499 15.635 C 59.179 15.495 58.679 15.425 57.999 15.425 Z M 66.606 29.375 L 69.906 10.625 L 75.606 10.625 L 72.306 29.375 Z M 80.109 29.375 L 74.109 29.375 L 81.999 10.625 L 90.819 10.625 L 92.139 29.375 L 86.109 29.375 L 85.989 26.405 L 81.279 26.405 Z M 85.239 16.385 L 83.139 21.635 L 85.539 21.635 L 85.539 16.385 Z M 110.318 24.845 L 106.598 24.845 L 105.818 29.375 L 100.118 29.375 L 103.418 10.625 L 112.418 10.625 C 115.818 10.625 117.518 12.205 117.518 15.365 C 117.518 16.865 117.308 18.22 116.888 19.43 C 116.468 20.64 116.003 21.6 115.493 22.31 C 114.983 23.02 114.283 23.62 113.393 24.11 C 112.503 24.6 111.478 24.845 110.318 24.845 Z M 117.306 29.375 L 120.606 10.625 L 126.306 10.625 L 123.846 24.575 L 128.866 24.575 L 134.736 10.625 L 143.556 10.625 L 144.876 29.375 L 138.846 29.375 L 138.726 26.405 L 134.016 26.405 L 132.846 29.375 L 126.846 29.375 L 128.866 24.575 L 129.546 24.575 L 128.706 29.375 Z M 137.976 16.385 L 135.876 21.635 L 138.276 21.635 L 138.276 16.385 Z M 152.47 10.625 L 152.86 17.225 L 153.07 17.225 L 155.83 10.625 L 162.13 10.625 L 154.57 24.275 L 153.7 29.375 L 148 29.375 L 148.87 24.275 L 146.17 10.625 Z M 172.57 22.295 L 166.87 22.295 L 166.48 24.575 L 173.47 24.575 L 172.63 29.375 L 159.94 29.375 L 163.24 10.625 L 175.78 10.625 L 174.22 15.425 L 168.07 15.425 L 167.65 17.945 L 173.35 17.945 Z M 191.379 29.375 L 185.109 29.375 L 183.729 23.795 L 182.499 23.795 L 181.539 29.375 L 175.839 29.375 L 179.139 10.625 L 188.139 10.625 C 191.559 10.625 193.269 12.155 193.269 15.215 C 193.269 16.475 193.079 17.675 192.699 18.815 C 191.999 20.975 190.899 22.415 189.399 23.135 Z M 183.969 15.425 L 183.309 19.175 L 184.629 19.175 C 185.309 19.175 185.824 19.1 186.174 18.95 C 186.524 18.8 186.764 18.37 186.894 17.66 C 187.024 16.95 187.089 16.515 187.089 16.355 C 187.089 15.955 186.934 15.7 186.624 15.59 C 186.314 15.48 185.809 15.425 185.109 15.425 Z M 109.457 12.82 C 106.903 12.82 104.833 14.89 104.833 17.444 C 104.833 19.998 106.903 22.068 109.457 22.068 C 112.011 22.068 114.081 19.998 114.081 17.444 C 114.081 14.89 112.011 12.82 109.457 12.82 Z" style="fill: rgb(255, 255, 255);"/>
  <path id="path4426" d="M 107.957 15.123 L 107.957 20.093 L 111.957 17.548 L 107.957 15.123 Z" style="fill-opacity: 1; fill-rule: evenodd; stroke: none; stroke-width: 0.1; stroke-linecap: butt; stroke-linejoin: miter; stroke-miterlimit: 4; stroke-dasharray: none; stroke-opacity: 1; fill: rgb(255, 255, 255);"/>
</svg>

<svg xmlns="http://www.w3.org/2000/svg" viewBox="0 0 200 40"><path d="M12.67 29.38H6.73l4.38-18.75h7.44l.54 9.53h.21l3.9-9.53h7.44l-2.22 18.74h-5.97l1.26-9.09h-.21l-3.75 9.1H15.4l-.63-9.1h-.15Zm31.56-7.08h-5.7l-.4 2.27h7l-.85 4.8H31.6l3.3-18.74h12.55l-1.56 4.8h-6.16l-.41 2.52H45Zm3.27 7.07 3.3-18.74h7.98q3.87 0 5.5 1.36 1.64 1.36 1.64 4.42 0 1.57-.36 3.6-.9 5.04-3.08 7.2-2.17 2.17-7 2.16ZM58 15.44h-2.37l-1.6 9.15h2.38q1.17 0 1.74-.29t.75-1.3l1.05-5.97q.03-.19.03-.48 0-.69-.48-.9a4 4 0 0 0-1.5-.21m8.6 13.95 3.3-18.75h5.7l-3.3 18.74Zm13.5 0h-6L82 10.63h8.82l1.32 18.74H86.1l-.12-2.96h-4.71Zm5.14-13-2.1 5.26h2.4V16.4Zm25.08 8.47h-3.72l-.78 4.52h-5.7l3.3-18.74h9q5.1 0 5.1 4.73a12.3 12.3 0 0 1-2.03 6.95 6.2 6.2 0 0 1-5.17 2.54m6.99 4.52 3.3-18.74h5.7l-2.46 13.94h5.02l5.87-13.94h8.82l1.32 18.74h-6.03l-.12-2.96h-4.71l-1.17 2.97h-6l2.02-4.8h.68l-.84 4.8Zm20.67-12.98-2.1 5.25h2.4V16.4Zm14.49-5.76.39 6.6h.21l2.76-6.6h6.3l-7.56 13.64-.87 5.1H148l.87-5.1-2.7-13.64Zm20.1 11.67h-5.7l-.39 2.27h6.99l-.84 4.8h-12.69l3.3-18.74h12.54l-1.56 4.8h-6.15l-.42 2.52h5.7Zm18.8 7.07h-6.26l-1.38-5.57h-1.23l-.96 5.57h-5.7l3.3-18.74h9q5.13 0 5.13 4.58 0 1.9-.57 3.6-1.05 3.25-3.3 4.33Zm-7.4-13.94-.66 3.75h1.32q1.03 0 1.54-.23.53-.22.72-1.29.2-1.06.2-1.3 0-.6-.47-.77a5 5 0 0 0-1.51-.16Zm-74.51-2.61a4.62 4.62 0 1 0 0 9.25 4.62 4.62 0 0 0 0-9.25" style="fill:#fff"/><path d="M107.96 15.12v4.97l4-2.54z" style="fill-opacity:1;fill-rule:evenodd;stroke:none;stroke-width:.1;stroke-linecap:butt;stroke-linejoin:miter;stroke-miterlimit:4;stroke-dasharray:none;stroke-opacity:1;fill:#fff"/></svg>
